img/divider.svg

<svg fill="none" height="43" viewBox="0 0 2 43" width="2" xmlns="http://www.w3.org/2000/svg"><g fill="#2f221b" fill-opacity=".3"><path d="m1.32003 9.15374c.35246-.59648.5769-1.2728.64468-1.96268.04218-.83447-.04971-1.67046-.07832-2.50493-.06176-.80737-.03766-1.62678-.18528-2.42511-.15364-.79079-.47297-1.545437-.911293-2.2202486-.325356.7410876-.522678 1.5454386-.561841 2.3543086-.030126.71398.063263 1.42494.090376 2.13891.115983 1.25473-.034644 2.57423.475983 3.75666.115983.27866.259075.54527.417235.80284.04067.0482.06327.17172.10695.06025z"/><path d="m1.59717 25.8554c.27565-.6883.28168-1.4264.28017-2.1555.02711-1.6056.05875-2.9764.09339-4.0714.10695-1.2758-.06929-2.5803-.69289-3.713-.491042.7456-.810373 1.6057-.926356 2.4899-.046694.5965-.039163 1.196-.06477 1.794-.025607.9474-.045188 1.8949-.063264 2.8423-.004518.5754-.033138 1.1508-.019581 1.7262.058744.6372.25456 1.2608.57841 1.812v.0016c.015062.0361.018075.0421.019581.0858 0-.0075 0-.006 0 .0045-.001506.0362-.007531.0708-.016569.1055-.006025.0211-.013556.0406-.021088.0602.015063.0015.02862.003.043682.003.478995 0 .625105-.6281.790795-.9851z"/><path d="m1.90597 40.6214c.0482-.5001.01807-1.0047.0256-1.5078-.00904-1.0107.02109-2.023-.01054-3.0322-.08887-.8872-.36603-1.7578-.82092-2.526-.409709.6929-.674814 1.4716-.790797 2.267-.091883 1.0679-.019582 2.1464-.04067 3.2189.004519.4654-.009037.9309.006025 1.3948.073808.7893.353975 1.5635.825442 2.2037.43381-.589.70494-1.2924.80586-2.0169z"/></g></svg>

<svg width="2" height="43" viewBox="0 0 2 43" fill="none" xmlns="http://www.w3.org/2000/svg">
<path d="M1.32003 9.15374C1.67249 8.55726 1.89693 7.88094 1.96471 7.19106C2.00689 6.35659 1.915 5.5206 1.88639 4.68613C1.82463 3.87876 1.84873 3.05935 1.70111 2.26102C1.54747 1.47023 1.22814 0.715583 0.789817 0.0407714C0.464461 0.781859 0.267139 1.58621 0.227976 2.39508C0.19785 3.10906 0.291239 3.82002 0.318352 4.53399C0.434335 5.78872 0.283708 7.10822 0.794335 8.29065C0.910318 8.56931 1.05341 8.83592 1.21157 9.09349C1.25224 9.14169 1.27484 9.26521 1.31852 9.15374L1.32003 9.15374Z" fill="#2F221B" fill-opacity="0.3"/>
<path d="M1.59717 25.8554C1.87282 25.1671 1.87885 24.429 1.87734 23.6999C1.90445 22.0943 1.93609 20.7235 1.97073 19.6285C2.07768 18.3527 1.90144 17.0482 1.27784 15.9155C0.786798 16.6611 0.467467 17.5212 0.351484 18.4054C0.30479 19.0019 0.312321 19.6014 0.286714 20.1994C0.261107 21.1468 0.241526 22.0943 0.22345 23.0417C0.218932 23.6171 0.190312 24.1925 0.203869 24.7679C0.262613 25.4051 0.458429 26.0287 0.782279 26.5799L0.782279 26.5815C0.797341 26.6176 0.800354 26.6236 0.80186 26.6673C0.80186 26.6598 0.80186 26.6613 0.80186 26.6718C0.800354 26.708 0.794329 26.7426 0.785291 26.7773C0.779266 26.7984 0.771735 26.8179 0.764203 26.8375C0.779266 26.839 0.792823 26.8405 0.807885 26.8405C1.28688 26.8405 1.43299 26.2124 1.59868 25.8554L1.59717 25.8554Z" fill="#2F221B" fill-opacity="0.3"/>
<path d="M1.90597 40.6214C1.95417 40.1213 1.92404 39.6167 1.93157 39.1136C1.92253 38.1029 1.95266 37.0906 1.92103 36.0814C1.83216 35.1942 1.555 34.3236 1.10011 33.5554C0.690401 34.2483 0.425296 35.027 0.309313 35.8224C0.21743 36.8903 0.289731 37.9688 0.268643 39.0413C0.273162 39.5067 0.259606 39.9722 0.274668 40.4361C0.348476 41.2254 0.628643 41.9996 1.10011 42.6398C1.53392 42.0508 1.80505 41.3474 1.90597 40.6229L1.90597 40.6214Z" fill="#2F221B" fill-opacity="0.3"/>
</svg>
